X:1
T:Title
%%score { ( 1 4 ) | ( 2 3 ) }
L:1/8
Q:1/4=108
M:4/4
K:D
V:1 treble nm="Grand Piano"
V:4 treble 
V:2 bass 
V:3 bass 
V:1
 [A,DF]2 [A,CE]2 [A,DF] [DFA]3 | [DGB]2 [DFA]2 [DGB] [Gd]3 | [Fd]2 [FA]2 [GB]2 [FA]2 | %3
w: W.~J.~Kirkpatrick * * *|||
 [FA]2 [A,DF]D [A,CE]4 | [A,DF]2 [A,CE]2 [A,DF] [DFA]3 | [DGB]2 [DFA]2 [DGB] [Gd]3 | %6
w: |||
 [Fd]2 [FA]2 [GB]2 [A,FA]2 | [A,DF]2[K:bass] [G,CE]2 [F,D]4 | [CE]3 [DF] [FA]2 [EG]2 | %9
w: |||
 [DF]3 [EG] [GB]2 [FA]2 | A2 EA c2 d2 | z2 B2 z4 | [DF]2 [EG]2 [GB] [FA]3 | %13
w: ||||
 [Fd]2 [Ec]2 [Dd] [DFA]3 | [DGB]2 [DGB]2 [DGB][DFA][A,DF][A,D] | [DF]2[K:bass] [G,CE]2 [F,D]4 |] %16
w: |||
V:2
 D,2 A,,2 D, D,3 | G,2 D,2 G, [G,B,]3 | [D,A,]2 [D,D]2 [D,D]2 [D,D]2 | [D,D]2 z F, A,,4 | %4
 D,2 A,,2 D, D,3 | G,2 D,2 G, [G,B,]3 | [D,A,]2 [D,D]2 [D,D]2 D,2 | A,,2 A,,2 D,4 | %8
 [A,,A,]3 [A,,A,] [A,,A,]2 [A,,A,]2 | [D,A,]3 [D,A,] [D,D]2 [D,D]2 | %10
 [E,CE]2 [E,A,C]2 [E,A,E]2 [E,B,E]2 | E2- [E,^G,E]2 [A,,A,]4 | [D,A,]2 [D,A,]2 [D,D] [D,D]3 | %13
 [D,A,]2 [E,A,]2 [F,A,] D,3 | G,,2 B,,2 D,D,D,F, | A,2 A,,2 D,4 |] %16
V:3
 x8 | x8 | x8 | z2 D,2 z4 | x8 | x8 | x8 | x8 | x8 | x8 | x8 | [E,A,]2 z2 z4 | x8 | x8 | x8 | x8 |] %16
V:4
 x8 | x8 | x8 | x8 | x8 | x8 | x8 | x2[K:bass] x6 | x8 | x8 | x8 | c2 z D [CA]2 [EG]2 | x8 | x8 | %14
 x8 | x2[K:bass] x6 |] %16

